src/main/resources/icons/AllIcons/actions/GroupByClass.svg

<!-- Copyright 2000-2021 JetBrains s.r.o. Use of this source code is governed by the Apache 2.0 license that can be found in the LICENSE file. -->
<svg xmlns="http://www.w3.org/2000/svg" width="16" height="16" viewBox="0 0 16 16">
  <g fill="none" fill-rule="evenodd">
    <g fill-rule="nonzero" transform="translate(3 2.8)">
      <circle cx="5" cy="5" r="5" fill="#40B6E0" fill-opacity=".6"/>
      <path fill="#231F20" d="M7.37140728,6.74921621 L6.88891399,6.26174846 C6.45444485,6.71854566 5.84205072,6.96896735 5.20763413,6.94926148 C4.16467249,6.90343796 3.35572078,6.03348735 3.39853415,5.00374656 L3.39853415,4.98910588 C3.37979102,4.48518567 3.56586755,3.99477551 3.91535372,3.62701268 C4.26483989,3.25924986 4.7487377,3.04464884 5.25935916,3.03096755 C5.8625807,3.02455118 6.44489928,3.2489029 6.884247,3.65699324 L7.34244608,3.1703139 C6.79924761,2.633073 6.05591193,2.3403605 5.28727631,2.36102423 L5.12502489,2.36102423 C4.40199249,2.34479604 3.70251364,2.61520498 3.18292109,3.11181494 C2.66332854,3.6084249 2.36694078,4.28983346 2.36000013,5.00374656 L2.36000013,5.01817582 C2.36511983,6.47410397 3.56432995,7.65055037 5.03917196,7.64649091 L5.26547621,7.64649091 C6.06536096,7.65958714 6.83238832,7.33277955 7.37140728,6.74921621 Z" opacity=".7"/>
    </g>
    <rect width="1" height="12" x="1" y="2" fill="#6E6E6E"/>
    <rect width="2" height="1" x="2" y="2" fill="#6E6E6E"/>
    <rect width="2" height="1" x="2" y="13" fill="#6E6E6E"/>
    <rect width="1" height="12" x="14" y="2" fill="#6E6E6E"/>
    <rect width="3" height="1" x="12" y="2" fill="#6E6E6E"/>
    <rect width="2" height="1" x="12" y="13" fill="#6E6E6E"/>
  </g>
</svg>

<svg xmlns="http://www.w3.org/2000/svg" width="16" height="16" viewBox="0 0 16 16"><rect id="frame" width="16" height="16" fill="none"/><g fill="none" fill-rule="evenodd"><g fill-rule="nonzero" transform="translate(3 2.8)"><circle cx="5" cy="5" r="5" fill="#40B6E0" fill-opacity=".6"/><path fill="#231F20" d="M7.371 6.75l-.482-.488a2.225 2.225 0 0 1-1.681.687 1.88 1.88 0 0 1-1.81-1.945v-.015a1.876 1.876 0 0 1 .517-1.362c.35-.368.834-.582 1.344-.596a2.351 2.351 0 0 1 1.625.626l.458-.487a2.815 2.815 0 0 0-2.055-.809h-.162a2.723 2.723 0 0 0-1.942.75 2.653 2.653 0 0 0-.823 1.893v.014c.005 1.456 1.204 2.633 2.68 2.628h.225c.8.014 1.567-.313 2.106-.897z" opacity=".7"/></g><path fill="#6E6E6E" d="M1 2h1v12H1z"/><path fill="#6E6E6E" d="M2 2h2v1H2z"/><path fill="#6E6E6E" d="M2 13h2v1H2z"/><path fill="#6E6E6E" d="M14 2h1v12h-1z"/><path fill="#6E6E6E" d="M12 2h3v1h-3z"/><path fill="#6E6E6E" d="M12 13h2v1h-2z"/></g></svg>
